src/actions/symbolic/museum-symbolic.svg

<svg width="16px" height="16px" version="1.1" viewBox="0 0 16 16" xmlns="http://www.w3.org/2000/svg">
 <path d="m8 0-6.9277 4h-0.072266v0.041016 0.95898h0.33789 0.66211v1h1v6h-1v1h-1v1h-1v1h16v-1h-1v-1h-1v-1h-1v-6h1v-1h0.66211 0.33789v-0.95898-0.041016h-0.072266l-6.9277-4zm0 1.1543 4.9297 2.8457h-9.8594l4.9297-2.8457zm-4 3.8457h3v1h0.5v6h-3.5v-6-1zm5 0h3v1 6h-3.5v-6h0.5v-1zm-6 8h10v1h-10v-1z" fill="#363636" style="paint-order:stroke fill markers"/>
</svg>

<svg xmlns="http://www.w3.org/2000/svg" width="16" height="16">
    <path fill="#050505" d="M8 0 1.072 4H1v1h1v1h1v6H2v1H1v1H0v1h16v-1h-1v-1h-1v-1h-1V6h1V5h1V4h-.072L8 0zm0 1.154L12.93 4H3.07L8 1.154zM4 5h3v1h.5v6H4V5zm5 0h3v7H8.5V6H9V5zm-6 8h10v1H3v-1z" opacity=".7" style="paint-order:stroke fill markers"/>
</svg>
